!!!OTL: Adelaide.
!!!OTL-incipit: EINSAM WANDELT DEIN FREUND
!!!COM: St. Phil. Eman. Pilz
!!!ARE: Europa, Mitteleuropa, Deutschland
!!!SCT: F0930
!!!TXL: @@DE
!!!YEM: Copyright 1995, estate of Helmut Schaffrath.
**kern	**text
*ICvox	*
*clefG2	*
*M4/4	*
*met(c)	*
*k[f#]	*
*G:	*
{8dd	1._Ein-
8b	-ſam
=1	=1
8aqq	.
4g	wan-
8g	-delt
8g	dein
8g	Freund
8g	im
8b	Frühlings-
8dd	.
=2	=2
(8ddL	-gar-
8ccJ)	.
4cc	-ten,
4r}	.
{8cc	mild
8a	vom
=3	=3
4f#	lieb-
8a	-li-
8f#	-chen
8d	Ʒau-
8ee	-ber-
8dd	-licht
8cc	um-
=4	=4
(8a#\L	-floſ-
8bJ)	.
4b	-ſen,
4r}	.
{8g	das
8g	durch
=5	=5
4gg	wanken-
8ff#	.
8ff#	-de
8ee	Blüthen-
8ff#	.
16aaqq	.
8gg	-ʒwei-
16ff#L	-ge
16eeJ	.
=6	=6
(8.ddL	ʒit-
16bJ)	.
8dd	-tert,
8r;}	.
{4dd	A-
8dd	-de-
8f#	-la-
=7	=7
4a	-i-
4g	-de?
4r}	.
==	==
!!!AGN: Liebes - Lied
!!!ONB: ESAC (Essen Associative Code) Database: FINK
!!!AMT: simple quadruple
!!!AIN: vox
!!!EED: Helmut Schaffrath
!!!EEV: 1.0
!!Text: Fr. Matthisson
!!!GTL: Minnelieder
!!!source: Musikalischer Hausschatz der Deutschen. Eine Sammlung von über 1000 Liedern und Gesängen mit Singstimmen und Klavierbegleitung. Leipzig, Litterarisches Verlags-Haus.
!!!page: 690
!!!URL-scan: https://www.digitale-sammlungen.de/en/view/bsb11144622?page=577
!!!ENC: Anna Maria Matuszewska
!!!EEV: 2024/08/07
*-	*-